X: 30
T: a Lover of Mild Behavior   #2
R: air
%S: s:2 b:20(10+10)
B: "O'Neill's 1850 *30"
Q: "Cheerfully"
O: F.O'Neill
Z: Norbert Paap, norbertp@bdu.uva.nl
N: Compacted by using labels and play order [JC]
P: Play A1 B1 B2 A2
M: 3/4
L: 1/4
K: A
"^A"[|] (c/d/) | (e2f) | (d2e) | (c2A) | (~dcA) | (~GFG) | A2A  |[1 A3 | "->B"zz ||[2 A3- | "^fine"A2 |]
"^B"|:       G | (A2B) | (c2d) | (e2a) | (g2a) | (f2e) | (~dcd) |[1 e3 | "->A"zz :|[2 e3- | e2 |]
